build/img/icon-vk.svg

<svg viewBox="0 0 12 8" fill="white" xmlns="http://www.w3.org/2000/svg">
<path d="M11.8931 6.68356C11.8608 6.62955 11.6613 6.19602 10.7012 5.30495C9.69614 4.37188 9.83115 4.5234 11.0417 2.91003C11.779 1.92745 12.0738 1.32741 11.9816 1.07089C11.8938 0.82637 11.3515 0.890875 11.3515 0.890875L9.54838 0.901376C9.54838 0.901376 9.41487 0.883374 9.31511 0.942629C9.21835 1.00113 9.1561 1.13614 9.1561 1.13614C9.1561 1.13614 8.87033 1.8967 8.4893 2.54325C7.68599 3.9076 7.36421 3.9796 7.23295 3.89485C6.92768 3.69758 7.00419 3.10129 7.00419 2.67826C7.00419 1.35591 7.20445 0.804619 6.61341 0.662108C6.41689 0.614854 6.27288 0.583352 5.7711 0.578102C5.12755 0.571351 4.58226 0.580352 4.27398 0.731113C4.06847 0.831621 3.91021 1.05589 4.00696 1.06864C4.12622 1.08439 4.39624 1.14139 4.5395 1.33641C4.72477 1.58768 4.71802 2.15322 4.71802 2.15322C4.71802 2.15322 4.82453 3.70958 4.46975 3.9031C4.22598 4.03586 3.89221 3.76509 3.1759 2.52675C2.80913 1.89295 2.53161 1.19165 2.53161 1.19165C2.53161 1.19165 2.47835 1.06114 2.38309 0.991383C2.26759 0.906626 2.10557 0.879624 2.10557 0.879624L0.390947 0.890125C0.390947 0.890125 0.133677 0.897626 0.0391703 1.00938C-0.0448359 1.10914 0.0324198 1.31466 0.0324198 1.31466C0.0324198 1.31466 1.37502 4.45514 2.89463 6.03851C4.28899 7.48986 5.8716 7.39461 5.8716 7.39461H6.58866C6.58866 7.39461 6.80542 7.37061 6.91568 7.25135C7.01769 7.14184 7.01394 6.93632 7.01394 6.93632C7.01394 6.93632 6.99969 5.974 7.44672 5.83224C7.887 5.69273 8.45255 6.76231 9.05184 7.17409C9.50487 7.48536 9.84915 7.41711 9.84915 7.41711L11.452 7.39461C11.452 7.39461 12.2906 7.34285 11.8931 6.68356Z"/>
</svg>

<svg viewBox="0 0 12 8" fill="#fff" xmlns="http://www.w3.org/2000/svg"><path d="M11.893 6.684c-.032-.054-.232-.488-1.192-1.38-1.005-.932-.87-.78.34-2.394.738-.983 1.033-1.583.94-1.84-.087-.244-.63-.18-.63-.18L9.549.902s-.133-.018-.233.042c-.097.058-.159.193-.159.193s-.286.76-.667 1.407C7.686 3.908 7.364 3.98 7.233 3.895c-.305-.197-.229-.794-.229-1.217 0-1.322.2-1.873-.39-2.016C6.416.615 6.272.583 5.77.578 5.128.571 4.582.58 4.274.731c-.206.1-.364.325-.267.338.12.015.39.072.533.267.185.252.178.817.178.817s.107 1.557-.248 1.75c-.244.133-.578-.138-1.294-1.376a11.544 11.544 0 01-.644-1.335s-.054-.13-.149-.2C2.268.906 2.106.88 2.106.88L.39.89s-.257.008-.352.12c-.084.1-.007.305-.007.305s1.343 3.14 2.863 4.724c1.394 1.45 2.977 1.356 2.977 1.356h.717s.216-.024.327-.144c.102-.11.098-.315.098-.315S7 5.974 7.447 5.832c.44-.14 1.006.93 1.605 1.342.453.311.797.243.797.243l1.603-.022s.839-.052.441-.711z"/></svg>
